flags/il.svg

<svg width="512" height="512" viewBox="0 0 512 512" fill="none" xmlns="http://www.w3.org/2000/svg">
<rect width="512" height="512" fill="var(--flag-palette-white, #eeeeee)"/>
<path fill-rule="evenodd" clip-rule="evenodd" d="M512 55.6533H0V122.435H512V55.6533ZM512 389.564H0V456.347H512V389.564Z" fill="var(--flag-palette-blue, #0052b4)"/>
<path d="M352.393 200.347H288.13L256 144.695L223.871 200.347H159.607L191.741 255.999L159.607 311.651H223.871L256 367.303L288.13 311.651H352.393L320.259 255.999L352.393 200.347ZM295.475 255.999L275.739 290.187H236.264L216.525 255.999L236.263 221.811H275.738L295.475 255.999ZM256 187.622L263.346 200.346H248.656L256 187.622ZM196.786 221.811H211.478L204.132 234.535L196.786 221.811ZM196.786 290.187L204.133 277.463L211.479 290.187H196.786ZM256 324.375L248.655 311.651H263.346L256 324.375ZM315.214 290.187H300.522L307.869 277.463L315.214 290.187ZM300.522 221.811H315.214L307.868 234.535L300.522 221.811Z" fill="var(--flag-palette-blue, #0052b4)"/>
</svg>

<svg xmlns="http://www.w3.org/2000/svg" width="512" height="512" fill="none"><path fill="#EEE" d="M0 0h512v512H0z"/><path fill="var(--flag-palette-blue, #0052b4)" fill-rule="evenodd" d="M512 55.7H0v66.7h512zm0 333.9H0v66.7h512z" clip-rule="evenodd"/><path fill="var(--flag-palette-blue, #0052b4)" d="M352.4 200.3H288l-32-55.6-32.1 55.6h-64.3l32.1 55.7-32 55.7h64.2l32.1 55.6 32.1-55.6h64.3L320.3 256zm-57 55.7-19.7 34.2h-39.4L216.5 256l19.8-34.2h39.4zM256 187.6l7.3 12.7h-14.6zm-59.2 34.2h14.7l-7.4 12.7zm0 68.4 7.3-12.7 7.4 12.7zm59.2 34.2-7.3-12.7h14.6zm59.2-34.2h-14.7l7.4-12.7zm-14.7-68.4h14.7l-7.3 12.7z"/></svg>
